content/paths/fern1.svg

<?xml version="1.0" encoding="UTF-8" standalone="no"?>
<!-- Created with Inkscape (http://www.inkscape.org/) -->

<svg
   xmlns:dc="http://purl.org/dc/elements/1.1/"
   xmlns:cc="http://creativecommons.org/ns#"
   xmlns:rdf="http://www.w3.org/1999/02/22-rdf-syntax-ns#"
   xmlns:svg="http://www.w3.org/2000/svg"
   xmlns="http://www.w3.org/2000/svg"
   xmlns:sodipodi="http://sodipodi.sourceforge.net/DTD/sodipodi-0.dtd"
   xmlns:inkscape="http://www.inkscape.org/namespaces/inkscape"
   width="1000"
   height="1000"
   id="svg2"
   version="1.1"
   inkscape:version="0.48.4 r9939"
   sodipodi:docname="fernold.svg">
  <defs
     id="defs4" />
  <sodipodi:namedview
     id="base"
     pagecolor="#ffffff"
     bordercolor="#666666"
     borderopacity="1.0"
     inkscape:pageopacity="0.0"
     inkscape:pageshadow="2"
     inkscape:zoom="0.49497475"
     inkscape:cx="67.011292"
     inkscape:cy="597.03047"
     inkscape:document-units="px"
     inkscape:current-layer="layer1"
     showgrid="false"
     inkscape:window-width="1920"
     inkscape:window-height="1017"
     inkscape:window-x="-8"
     inkscape:window-y="-8"
     inkscape:window-maximized="1" />
  <metadata
     id="metadata7">
    <rdf:RDF>
      <cc:Work
         rdf:about="">
        <dc:format>image/svg+xml</dc:format>
        <dc:type
           rdf:resource="http://purl.org/dc/dcmitype/StillImage" />
        <dc:title></dc:title>
      </cc:Work>
    </rdf:RDF>
  </metadata>
  <g
     inkscape:label="Layer 1"
     inkscape:groupmode="layer"
     id="layer1"
     transform="translate(0,-52.362183)">
    <path
       style="fill:none;stroke:#000000;stroke-width:3.33900738px;stroke-linecap:butt;stroke-linejoin:miter;stroke-opacity:1"
       d="m 10.88521,299.54927 c 35.833081,52.84152 78.730907,88.35233 108.88123,138.85464 50.62416,84.79636 97.00297,175.15712 118.48932,271.54988 17.58378,78.88498 -40.97933,177.03676 6.59348,242.37325 33.74462,46.34485 104.85201,57.32226 162.18034,57.24016 61.60616,-0.088 137.82726,-12.21835 174.10538,-62.01017 33.03969,-45.34706 0.34575,-112.34168 5.16365,-168.24128 11.79528,-136.85449 58.55379,-249.43633 58.02176,-407.98041 -0.32098,-95.64991 -45.18853,-164.90188 -184.21802,-220.01092 51.11133,103.32594 79.13125,111.10751 97.02853,175.51786 14.02386,50.47039 14.01933,105.30267 5.82134,157.03971 -10.25835,64.73979 -67.67745,184.62944 -67.67745,184.62944 0,0 23.24717,-146.12408 12.45762,-218.15848 -8.24905,-55.07328 -23.79756,-112.7149 -57.97506,-156.68094 -46.46705,-59.77534 -61.47762,-89.55346 -186.99663,-128.92928 69.78434,75.81188 109.97447,89.85749 138.84281,152.15405 24.27637,52.38731 21.97079,114.05645 22.14542,171.79501 0.1778,58.78764 -21.48935,175.04963 -21.48935,175.04963 0,0 -15.73977,-174.12863 -52.26572,-251.61194 C 326.66288,362.63695 292.52582,314.8452 247.26319,284.10207 187.3953,243.4388 136.97962,220.45068 39.761607,220.21091 119.61867,277.12826 178.19746,303.15817 227.00462,365.1998 c 39.69882,50.46347 67.42036,112.58558 78.76067,175.78333 7.52449,41.9328 -8.44594,127.5283 -8.44594,127.5283 0,0 -39.37221,-131.33776 -73.79126,-189.86928 C 192.6721,426.1698 156.12447,373.94871 106.93595,338.08886 79.059429,317.76607 50.781883,308.76979 10.88521,299.54927 z"
       id="path2985"
       inkscape:connector-curvature="0"
       sodipodi:nodetypes="caaaaaascaacaacaacaacaacaac" />
  </g>
</svg>

<?xml version="1.0" encoding="UTF-8" standalone="no"?>
<!-- Created with Inkscape (http://www.inkscape.org/) -->

<svg
   xmlns:dc="http://purl.org/dc/elements/1.1/"
   xmlns:cc="http://creativecommons.org/ns#"
   xmlns:rdf="http://www.w3.org/1999/02/22-rdf-syntax-ns#"
   xmlns:svg="http://www.w3.org/2000/svg"
   xmlns="http://www.w3.org/2000/svg"
   xmlns:sodipodi="http://sodipodi.sourceforge.net/DTD/sodipodi-0.dtd"
   xmlns:inkscape="http://www.inkscape.org/namespaces/inkscape"
   width="1000"
   height="1000"
   id="svg2"
   version="1.1"
   inkscape:version="0.48.4 r9939"
   sodipodi:docname="fern1.svg">
  <defs
     id="defs4" />
  <sodipodi:namedview
     id="base"
     pagecolor="#ffffff"
     bordercolor="#666666"
     borderopacity="1.0"
     inkscape:pageopacity="0.0"
     inkscape:pageshadow="2"
     inkscape:zoom="0.49497475"
     inkscape:cx="67.011292"
     inkscape:cy="597.03047"
     inkscape:document-units="px"
     inkscape:current-layer="layer1"
     showgrid="false"
     inkscape:window-width="1920"
     inkscape:window-height="1017"
     inkscape:window-x="-8"
     inkscape:window-y="-8"
     inkscape:window-maximized="1" />
  <metadata
     id="metadata7">
    <rdf:RDF>
      <cc:Work
         rdf:about="">
        <dc:format>image/svg+xml</dc:format>
        <dc:type
           rdf:resource="http://purl.org/dc/dcmitype/StillImage" />
        <dc:title></dc:title>
      </cc:Work>
    </rdf:RDF>
  </metadata>
  <g
     inkscape:label="Layer 1"
     inkscape:groupmode="layer"
     id="layer1"
     transform="translate(0,-52.362183)">
    <path
       style="fill:none;stroke:#000000;stroke-width:3.33900738px;stroke-linecap:butt;stroke-linejoin:miter;stroke-opacity:1"
       d="M 10.88521,299.54927 C 46.718291,352.39079 89.616117,387.9016 119.76644,438.40391 170.3906,523.20027 216.76941,613.56103 238.25576,709.95379 255.83954,788.83877 197.27643,886.99055 244.84924,952.32704 278.59386,998.67189 349.70125,1009.6493 407.02958,1009.5672 468.63574,1009.4792 544.85684,997.34885 581.13496,947.55703 614.17465,902.20997 581.48071,835.21535 586.29861,779.31575 598.09389,642.46126 644.8524,529.87942 644.32037,371.33534 643.99939,275.68543 599.13184,206.43346 460.10235,151.32442 511.21368,254.65036 539.2336,262.43193 557.13088,326.84228 571.15474,377.31267 571.15021,432.14495 562.95222,483.88199 552.69387,548.62178 495.27477,668.51143 495.27477,668.51143 495.27477,668.51143 518.52194,522.38735 507.73239,450.35295 499.48334,395.27967 483.93483,337.63805 449.75733,293.67201 403.29028,233.89667 388.27971,204.11855 262.7607,164.74273 332.54504,240.55461 372.73517,254.60022 401.60351,316.89678 425.87988,369.28409 423.5743,430.95323 423.74893,488.69179 423.92673,547.47943 402.25958,663.74142 402.25958,663.74142 402.25958,663.74142 386.51981,489.61279 349.99386,412.12948 326.66288,362.63695 292.52582,314.8452 247.26319,284.10207 187.3953,243.4388 136.97962,220.45068 39.761607,220.21091 119.61867,277.12826 178.19746,303.15817 227.00462,365.1998 266.70344,415.66327 294.42498,477.78538 305.76529,540.98313 313.28978,582.91593 297.31935,668.51143 297.31935,668.51143 297.31935,668.51143 257.94714,537.17367 223.52809,478.64215 192.6721,426.1698 156.12447,373.94871 106.93595,338.08886 79.059429,317.76607 50.781883,308.76979 10.88521,299.54927 z"
       id="path2985"
       inkscape:connector-curvature="0"
       sodipodi:nodetypes="caaaaaascaacaacaacaacaacaac" />
  </g>
</svg>
